X: 4891
T: Bragging Man, The
R: reel
M: 4/4
K: Gmajor
g|:fdcA BG (3ABc|BGAG FAAg|fdcA BG (3ABc|BGAF DG G2:|
gfgb afde|=fefd ABc#f|gfgb afde|fdcA BGGf|
gfgb afde|=fefd ABcA|ga (3gab afde|=fdcA BG G2||

